<?xml version="1.0" encoding="UTF-8"?>
<map version="1.10" tiledversion="1.11.2" orientation="orthogonal" renderorder="right-down" width="25" height="24" tilewidth="32" tileheight="32" infinite="0" nextlayerid="4" nextobjectid="40">
 <editorsettings>
  <export target="stonevilleWest.tmj" format="json"/>
 </editorsettings>
 <tileset firstgid="1" name="tiles4" tilewidth="32" tileheight="32" tilecount="136" columns="8">
  <image source="tiles4.png" width="256" height="544"/>
 </tileset>
 <layer id="1" name="ground" width="25" height="24">
  <properties>
   <property name="toMap" value="stonevilleStadium"/>
   <property name="toPortal" value="eastArch"/>
  </properties>
  <data encoding="csv">
129,129,129,129,129,129,129,129,129,129,129,129,129,129,129,129,129,129,129,129,129,129,129,129,129,
129,19,19,19,19,19,19,19,19,19,19,19,19,19,19,19,19,19,19,19,19,19,19,19,129,
129,19,19,19,19,19,19,19,19,19,21,21,19,19,19,19,19,19,19,19,19,19,19,19,129,
129,19,121,121,121,121,21,121,121,121,121,21,121,121,121,121,19,121,121,121,121,19,19,19,129,
129,19,129,129,129,129,21,129,129,129,129,21,129,129,129,129,19,129,129,129,129,19,19,19,129,
129,19,129,129,129,129,21,129,129,129,129,21,129,129,129,129,19,129,129,129,129,19,19,19,129,
129,19,129,129,129,129,19,129,129,129,129,21,129,129,129,129,19,129,129,129,129,19,19,19,129,
100,100,100,100,100,100,100,100,100,100,100,100,100,100,100,100,100,100,100,100,100,100,102,21,129,
129,110,100,100,100,100,100,100,100,100,100,100,100,100,100,100,100,100,100,100,100,100,100,100,100,
129,19,19,19,19,19,19,100,100,19,19,19,19,19,19,19,19,19,19,19,19,100,100,21,129,
129,19,121,121,121,121,19,100,100,21,121,121,121,121,21,21,121,121,121,121,21,100,100,21,129,
129,19,129,129,129,129,19,100,100,19,129,129,129,129,19,19,129,129,129,129,19,100,100,21,129,
129,19,129,129,129,129,19,100,100,19,129,129,129,129,19,19,129,129,129,129,19,100,100,21,129,
129,19,129,129,129,129,19,100,100,19,129,129,129,129,19,19,129,129,129,129,19,100,100,21,129,
129,104,100,100,100,100,100,100,100,100,100,100,100,100,100,100,100,100,100,100,100,100,100,19,129,
129,110,100,100,100,100,100,100,100,100,100,100,100,100,100,100,100,100,100,100,100,100,100,19,129,
129,19,21,21,21,21,21,100,100,21,21,21,21,21,21,21,21,21,21,21,21,100,100,19,129,
129,19,121,121,121,121,21,100,100,19,121,121,121,121,19,19,121,121,121,121,21,100,100,19,129,
129,19,129,129,129,129,19,100,100,19,129,129,129,129,21,21,129,129,129,129,19,100,100,19,129,
129,19,129,129,129,129,19,100,100,21,129,129,129,129,19,19,129,129,129,129,19,100,100,19,129,
129,19,129,129,129,129,19,100,100,19,129,129,129,129,19,19,129,129,129,129,19,100,100,19,129,
129,104,100,100,100,100,100,100,100,100,100,100,100,100,100,100,100,100,100,100,100,100,100,19,129,
129,110,100,100,100,100,100,100,100,100,100,100,100,100,100,100,100,100,100,100,100,100,108,19,129,
129,129,129,129,129,129,129,129,129,129,129,129,129,129,129,129,129,129,129,129,129,129,129,129,129
</data>
 </layer>
 <objectgroup id="2" name="navmesh">
  <object id="7" x="32" y="32" width="160" height="64"/>
  <object id="12" x="672" y="32" width="96" height="704"/>
  <object id="13" x="32" y="96" width="32" height="128"/>
  <object id="14" x="192" y="96" width="32" height="128"/>
  <object id="15" x="352" y="96" width="32" height="128"/>
  <object id="16" x="512" y="96" width="32" height="128"/>
  <object id="17" x="32" y="224" width="192" height="96"/>
  <object id="18" x="768" y="256" width="32" height="32"/>
  <object id="19" x="0" y="224" width="32" height="32"/>
  <object id="20" x="32" y="320" width="32" height="128"/>
  <object id="21" x="192" y="320" width="128" height="128"/>
  <object id="22" x="448" y="320" width="64" height="128"/>
  <object id="23" x="640" y="320" width="32" height="128"/>
  <object id="25" x="32" y="448" width="192" height="96"/>
  <object id="26" x="32" y="544" width="32" height="128"/>
  <object id="27" x="192" y="544" width="128" height="128"/>
  <object id="28" x="448" y="544" width="64" height="128"/>
  <object id="29" x="640" y="544" width="32" height="128"/>
  <object id="30" x="32" y="672" width="192" height="64"/>
  <object id="31" x="224" y="224" width="256" height="96"/>
  <object id="32" x="480" y="224" width="192" height="96"/>
  <object id="33" x="192" y="32" width="160" height="64"/>
  <object id="34" x="352" y="32" width="160" height="64"/>
  <object id="35" x="512" y="32" width="160" height="64"/>
  <object id="36" x="224" y="448" width="256" height="96"/>
  <object id="37" x="480" y="448" width="192" height="96"/>
  <object id="38" x="224" y="672" width="256" height="64"/>
  <object id="39" x="480" y="672" width="192" height="64"/>
 </objectgroup>
 <objectgroup id="3" name="portals">
  <object id="1" name="eastArch" gid="27" x="768" y="288" width="32" height="32">
   <properties>
    <property name="toMap" value="stoneville"/>
    <property name="toPortal" value="westArch"/>
   </properties>
  </object>
  <object id="5" name="mysteriousStair" gid="3" x="32" y="672" width="32" height="32">
   <properties>
    <property name="toMap" value="stonevilleWestCellar"/>
    <property name="toPortal" value="stair1"/>
   </properties>
  </object>
  <object id="6" name="westArch" gid="27" x="0" y="256" width="32" height="32">
   <properties>
    <property name="toMap" value="stonevilleStadium"/>
    <property name="toPortal" value="eastArch"/>
   </properties>
  </object>
 </objectgroup>
</map>
