<?xml version="1.0" encoding="UTF-8"?>
<map version="1.10" tiledversion="1.11.2" orientation="orthogonal" renderorder="right-down" width="30" height="20" tilewidth="32" tileheight="32" infinite="1" nextlayerid="5" nextobjectid="13">
 <editorsettings>
  <export target="stonevilleEast.tmj" format="json"/>
 </editorsettings>
 <tileset firstgid="1" name="tiles4" tilewidth="32" tileheight="32" tilecount="136" columns="8">
  <image source="tiles4.png" width="256" height="544"/>
  <tile id="93">
   <animation>
    <frame tileid="83" duration="100"/>
    <frame tileid="84" duration="100"/>
    <frame tileid="85" duration="100"/>
    <frame tileid="86" duration="100"/>
    <frame tileid="87" duration="100"/>
    <frame tileid="88" duration="100"/>
    <frame tileid="87" duration="100"/>
    <frame tileid="86" duration="100"/>
    <frame tileid="85" duration="100"/>
    <frame tileid="84" duration="100"/>
   </animation>
  </tile>
  <wangsets>
   <wangset name="mainlandGround" type="corner" tile="18">
    <wangcolor name="lightGrass" color="#19ff21" tile="-1" probability="1"/>
    <wangcolor name="darkGrass" color="#04430e" tile="-1" probability="1"/>
    <wangcolor name="lightDirt" color="#0000ff" tile="-1" probability="1"/>
    <wangcolor name="darkDirt" color="#ff7700" tile="-1" probability="1"/>
    <wangtile tileid="17" wangid="0,2,0,2,0,2,0,2"/>
    <wangtile tileid="18" wangid="0,1,0,1,0,1,0,1"/>
    <wangtile tileid="19" wangid="0,2,0,2,0,2,0,2"/>
    <wangtile tileid="20" wangid="0,1,0,1,0,1,0,1"/>
    <wangtile tileid="21" wangid="0,2,0,2,0,2,0,2"/>
    <wangtile tileid="22" wangid="0,1,0,1,0,1,0,1"/>
    <wangtile tileid="96" wangid="0,2,0,2,0,4,0,4"/>
    <wangtile tileid="97" wangid="0,1,0,1,0,3,0,3"/>
    <wangtile tileid="98" wangid="0,4,0,4,0,4,0,4"/>
    <wangtile tileid="99" wangid="0,3,0,3,0,3,0,3"/>
    <wangtile tileid="101" wangid="0,1,0,1,0,3,0,1"/>
    <wangtile tileid="102" wangid="0,2,0,4,0,2,0,2"/>
    <wangtile tileid="103" wangid="0,1,0,3,0,1,0,1"/>
    <wangtile tileid="104" wangid="0,2,0,4,0,4,0,2"/>
    <wangtile tileid="105" wangid="0,1,0,3,0,3,0,1"/>
    <wangtile tileid="106" wangid="0,2,0,2,0,2,0,4"/>
    <wangtile tileid="107" wangid="0,1,0,1,0,1,0,3"/>
    <wangtile tileid="108" wangid="0,4,0,2,0,2,0,2"/>
    <wangtile tileid="109" wangid="0,3,0,1,0,1,0,1"/>
    <wangtile tileid="110" wangid="0,4,0,2,0,2,0,4"/>
    <wangtile tileid="111" wangid="0,3,0,1,0,1,0,3"/>
    <wangtile tileid="112" wangid="0,4,0,4,0,2,0,2"/>
    <wangtile tileid="113" wangid="0,3,0,3,0,1,0,1"/>
    <wangtile tileid="114" wangid="0,2,0,2,0,2,0,2"/>
    <wangtile tileid="115" wangid="0,1,0,1,0,1,0,1"/>
    <wangtile tileid="116" wangid="0,2,0,2,0,2,0,2"/>
    <wangtile tileid="117" wangid="0,1,0,1,0,1,0,1"/>
   </wangset>
  </wangsets>
 </tileset>
 <layer id="1" name="ground" width="30" height="20">
  <data encoding="csv">
   <chunk x="-16" y="-16" width="16" height="16">
0,19,19,19,19,19,19,19,19,19,19,19,19,19,19,19,
0,19,19,19,19,19,19,19,19,21,21,21,21,21,21,21,
0,19,19,19,19,19,19,118,21,21,21,21,21,21,21,21,
0,16,19,19,21,21,19,118,23,21,21,21,21,21,21,23,
0,16,19,19,21,116,19,21,19,21,21,21,21,21,21,21,
0,16,19,19,21,19,100,100,100,100,100,100,100,100,100,100,
0,16,19,19,21,21,100,100,100,100,100,100,100,100,100,100,
0,16,19,19,116,21,100,100,19,19,23,19,19,116,116,118,
0,16,19,19,21,21,100,100,21,21,21,21,21,19,21,118,
0,16,19,118,21,21,100,100,21,19,19,19,19,19,19,19,
0,16,19,116,21,116,100,100,19,19,19,19,19,19,19,19,
0,16,19,19,23,116,100,100,19,19,19,115,22,18,115,18,
0,100,100,100,100,100,100,100,19,19,18,117,20,117,18,22,
0,16,19,19,19,19,100,100,19,19,20,117,18,117,18,22,
0,16,19,19,21,21,100,100,19,22,22,22,117,115,115,115,
0,16,19,19,21,19,100,100,19,22,22,22,22,20,115,20
</chunk>
   <chunk x="0" y="-16" width="16" height="16">
19,19,19,19,19,19,19,19,19,19,19,19,19,19,19,19,
21,19,19,19,19,19,19,19,19,19,19,19,19,19,19,19,
21,23,21,23,19,19,19,23,19,19,19,19,19,19,19,19,
21,23,21,116,118,21,19,19,19,116,19,19,19,19,19,19,
23,23,21,19,118,19,21,118,21,19,19,19,19,19,19,19,
100,100,100,100,100,100,100,100,100,100,19,19,19,19,19,19,
100,100,100,100,100,100,100,100,100,100,19,19,19,19,19,19,
21,21,21,21,21,21,19,19,100,100,23,118,19,19,19,19,
21,23,19,19,21,21,21,23,100,100,21,23,19,19,19,19,
19,19,19,19,19,19,116,19,100,100,19,23,19,19,19,19,
19,19,19,19,19,19,21,21,100,100,23,116,19,19,19,19,
19,19,19,19,19,19,21,21,100,100,19,21,19,19,19,19,
20,18,19,19,19,19,21,21,100,100,116,21,19,19,19,19,
117,22,117,19,19,19,21,21,100,100,21,21,19,19,19,19,
18,115,22,19,19,19,21,21,100,100,21,21,19,19,19,19,
20,18,115,19,19,19,21,21,100,100,21,21,19,19,19,19
</chunk>
   <chunk x="-16" y="0" width="16" height="16">
0,16,19,19,21,21,100,100,19,22,22,22,22,22,22,22,
0,16,19,19,21,21,100,100,19,22,22,22,22,22,22,22,
0,16,19,19,21,21,100,100,19,19,19,22,22,22,22,22,
0,19,19,19,116,21,100,100,19,19,19,19,19,19,19,19,
0,19,19,19,21,21,100,100,19,19,19,19,19,19,19,19,
0,19,19,19,21,19,100,100,19,19,19,19,19,19,19,19,
0,19,19,19,21,19,100,100,19,19,19,19,19,19,19,19,
0,19,19,19,19,116,100,100,100,100,100,100,100,100,100,100,
0,19,19,19,19,19,100,100,100,100,100,100,100,100,100,100,
0,19,19,19,21,21,21,21,21,21,21,21,21,118,21,21,
0,19,19,19,19,21,21,21,21,21,21,21,21,21,21,21,
0,19,19,19,19,19,19,19,19,19,19,19,19,21,19,19,
0,19,19,19,19,19,19,19,19,19,19,19,19,21,21,21,
0,19,19,19,19,19,19,19,19,19,19,19,19,19,19,19,
0,19,19,19,19,19,19,19,19,19,19,19,19,19,19,19,
0,19,19,19,19,19,19,19,19,19,19,19,19,19,19,19
</chunk>
   <chunk x="0" y="0" width="16" height="16">
22,20,19,19,19,19,21,21,100,100,21,21,19,19,19,19,
22,22,19,19,19,19,21,21,100,100,21,118,19,19,19,19,
19,19,19,19,19,19,21,21,100,100,21,19,19,19,19,19,
19,19,19,19,19,19,21,21,100,100,21,21,19,19,19,19,
19,19,19,19,19,19,21,19,100,100,116,21,19,19,19,19,
19,19,19,19,19,19,116,21,100,100,19,19,19,19,19,19,
19,19,19,19,19,19,21,23,100,100,21,118,19,19,19,19,
100,100,100,100,100,100,100,100,100,100,23,19,19,19,19,19,
100,100,100,100,100,100,100,100,100,100,19,19,19,19,19,19,
21,21,21,21,21,21,21,21,116,116,19,19,19,19,19,19,
21,21,21,21,21,21,21,118,19,118,19,19,19,19,19,19,
19,19,21,21,21,21,21,21,19,19,19,19,19,19,19,19,
21,21,19,19,19,19,19,19,19,19,19,19,19,19,19,19,
19,19,19,19,19,19,19,19,19,19,19,19,19,19,19,19,
19,19,19,19,19,19,19,19,19,19,19,19,19,19,19,19,
19,19,19,19,19,19,19,19,19,19,19,19,19,19,19,19
</chunk>
  </data>
 </layer>
 <layer id="3" name="walls" width="30" height="20">
  <data encoding="csv">
   <chunk x="-16" y="-16" width="16" height="16">
0,0,0,0,0,0,0,0,0,0,0,0,0,0,0,0,
0,0,0,0,0,0,0,0,0,0,0,0,0,0,0,0,
0,0,0,0,0,0,0,0,0,0,0,0,0,0,0,0,
0,128,0,0,0,0,0,0,0,0,0,0,0,0,0,0,
0,128,0,0,0,0,0,0,0,0,0,0,0,0,0,0,
0,128,0,0,0,0,0,0,0,0,0,0,0,0,0,0,
0,128,0,0,0,0,0,0,0,0,0,0,0,0,0,0,
0,128,0,0,0,0,0,0,0,0,0,0,0,0,0,0,
0,128,0,0,0,0,0,0,0,121,121,121,121,121,121,0,
0,128,0,0,0,0,0,0,0,128,128,128,128,128,128,0,
0,128,0,0,0,0,0,0,0,128,128,128,128,128,128,0,
0,128,0,0,0,0,0,0,0,128,128,128,128,128,128,0,
0,0,0,0,0,0,0,0,0,128,128,128,128,128,128,0,
0,128,0,0,0,0,0,0,0,128,128,128,128,128,128,0,
0,128,0,0,0,0,0,0,0,0,0,0,0,0,0,0,
0,128,0,0,0,0,0,0,0,0,0,0,0,0,0,0
</chunk>
   <chunk x="-16" y="0" width="16" height="16">
0,128,0,0,0,0,0,0,0,0,0,0,0,0,0,0,
0,128,0,0,0,0,0,0,0,0,0,0,0,0,0,0,
0,128,0,0,0,0,0,0,0,0,0,0,0,0,0,0,
0,0,0,0,0,0,0,0,0,0,0,0,0,0,0,0,
0,0,0,0,0,0,0,0,0,0,0,0,0,0,0,0,
0,0,0,0,0,0,0,0,0,0,0,0,0,0,0,0,
0,0,0,0,0,0,0,0,0,0,0,0,0,0,0,0,
0,0,0,0,0,0,0,0,0,0,0,0,0,0,0,0,
0,0,0,0,0,0,0,0,0,0,0,0,0,0,0,0,
0,0,0,0,0,0,0,0,0,0,0,0,0,0,0,0,
0,0,0,0,0,0,0,0,0,0,0,0,0,0,0,0,
0,0,0,0,0,0,0,0,0,0,0,0,0,0,0,0,
0,0,0,0,0,0,0,0,0,0,0,0,0,0,0,0,
0,0,0,0,0,0,0,0,0,0,0,0,0,0,0,0,
0,0,0,0,0,0,0,0,0,0,0,0,0,0,0,0,
0,0,0,0,0,0,0,0,0,0,0,0,0,0,0,0
</chunk>
  </data>
 </layer>
 <objectgroup id="4" name="navmesh">
  <object id="4" x="-448" y="-512" width="224" height="1024"/>
  <object id="6" x="-224" y="-512" width="192" height="256"/>
  <object id="7" x="-224" y="-64" width="192" height="576"/>
  <object id="8" x="-32" y="-512" width="272" height="1024"/>
  <object id="9" x="240" y="-512" width="272" height="1024"/>
  <object id="10" x="-480" y="-512" width="32" height="96"/>
  <object id="11" x="-480" y="96" width="32" height="416"/>
  <object id="12" x="-480" y="-128" width="32" height="32"/>
 </objectgroup>
 <objectgroup id="2" name="portals">
  <object id="1" name="gate" gid="27" x="-480" y="-96" width="32" height="32">
   <properties>
    <property name="toMap" value="stoneville"/>
    <property name="toPortal" value="eastGate"/>
   </properties>
  </object>
  <object id="3" name="hole" gid="91" x="416" y="448" width="32" height="32">
   <properties>
    <property name="toMap" value="stonevilleEastTunnel"/>
    <property name="toPortal" value="entrance"/>
   </properties>
  </object>
 </objectgroup>
</map>
