<?xml version="1.0" encoding="UTF-8"?>
<map version="1.10" tiledversion="1.11.2" orientation="orthogonal" renderorder="right-down" width="20" height="35" tilewidth="32" tileheight="32" infinite="0" nextlayerid="5" nextobjectid="114">
 <editorsettings>
  <export target="stonevilleWestCellar.tmj" format="json"/>
 </editorsettings>
 <tileset firstgid="1" name="tiles4" tilewidth="32" tileheight="32" tilecount="136" columns="8">
  <image source="tiles4.png" width="256" height="544"/>
 </tileset>
 <layer id="1" name="ground" width="20" height="35">
  <data encoding="csv">
16,16,16,129,15,129,17,15,15,129,129,129,16,16,16,129,16,16,16,16,
16,16,16,16,15,129,17,129,16,16,16,129,15,129,15,129,16,16,121,16,
16,16,16,129,17,129,17,129,16,129,16,16,16,129,16,16,15,16,16,16,
129,129,129,129,17,129,15,129,16,129,16,129,16,129,129,129,129,129,129,129,
16,16,17,16,17,15,15,129,16,16,16,129,16,16,16,16,16,15,16,16,
16,129,129,129,129,129,129,129,129,129,129,129,16,129,129,129,129,129,129,16,
16,129,129,16,17,16,15,15,16,16,16,16,16,16,16,16,16,16,129,16,
16,16,129,17,129,129,129,129,129,129,129,129,129,129,129,129,129,16,129,16,
129,16,129,17,17,16,16,16,15,16,16,16,129,16,16,16,16,16,129,15,
129,16,129,129,129,129,129,129,129,16,129,16,129,16,129,129,129,16,129,15,
16,16,17,17,129,17,14,14,14,14,16,16,129,16,16,16,16,16,16,16,
16,129,129,16,129,14,129,129,129,129,129,129,129,16,129,129,129,129,129,129,
16,16,16,16,129,17,17,17,14,14,14,15,129,16,16,16,16,129,16,16,
16,129,129,129,129,129,129,129,14,129,129,14,129,129,129,129,16,129,16,16,
16,16,16,16,129,16,17,17,16,129,14,14,16,16,16,129,16,129,129,16,
16,129,129,129,129,129,129,129,16,129,14,129,129,129,15,129,16,129,129,16,
16,129,16,16,16,129,17,17,16,129,16,14,14,129,15,129,16,129,16,16,
129,129,16,129,16,129,17,129,14,129,14,129,14,129,14,129,16,129,16,129,
16,129,16,129,16,129,17,129,16,129,14,129,14,129,14,129,16,129,16,129,
16,129,16,129,16,129,17,129,16,14,14,129,14,14,14,129,15,129,16,16,
16,129,16,129,16,129,17,129,129,129,129,129,129,129,129,129,14,129,129,16,
16,129,16,129,17,17,17,129,14,14,14,14,14,14,14,129,14,129,15,16,
16,129,16,129,129,129,129,129,129,129,129,14,129,129,129,129,14,129,15,129,
16,129,17,129,17,16,14,14,14,14,129,14,14,129,129,14,14,14,16,15,
16,16,17,129,129,129,14,129,14,14,14,129,14,14,129,129,129,129,129,129,
129,129,129,129,129,129,14,129,14,129,14,129,129,14,14,14,14,14,14,16,
129,129,129,16,17,14,14,129,14,129,14,129,14,129,129,129,129,129,129,16,
16,16,17,16,129,129,14,129,14,129,14,129,14,14,14,14,14,14,14,16,
16,129,129,129,129,129,14,129,14,129,14,129,14,129,129,129,129,129,129,129,
16,129,16,17,17,129,17,129,14,129,14,129,14,14,14,14,14,16,16,16,
16,129,16,121,17,129,17,129,129,129,16,129,129,129,129,129,129,129,129,16,
16,129,16,16,17,129,17,129,16,16,16,16,16,16,16,16,16,16,16,16,
16,129,16,16,129,129,17,129,129,129,129,129,129,129,129,129,129,129,129,129,
16,129,129,16,129,16,16,17,17,129,17,17,17,129,16,16,16,129,16,16,
16,16,16,16,16,16,129,129,17,17,17,129,17,17,17,129,17,17,16,129
</data>
 </layer>
 <objectgroup id="4" name="items" visible="0" locked="1">
  <object id="4" name="gol" gid="66" x="576" y="448" width="32" height="32">
   <properties>
    <property name="count" type="int" value="1"/>
   </properties>
  </object>
  <object id="5" name="rune" gid="37" x="576" y="64" width="32" height="32"/>
  <object id="6" name="rune" gid="40" x="96" y="992" width="32" height="32"/>
 </objectgroup>
 <objectgroup id="3" name="portals">
  <object id="1" name="stair1" gid="29" x="32" y="64" width="32" height="32">
   <properties>
    <property name="toMap" value="stonevilleWest"/>
    <property name="toPortal" value="mysteriousStair"/>
   </properties>
  </object>
  <object id="2" name="portal1" gid="1" x="0" y="608" width="32" height="32">
   <properties>
    <property name="toMap" value="stonevilleWestCellar"/>
    <property name="toPortal" value="portal2"/>
   </properties>
  </object>
  <object id="3" name="portal2" gid="1" x="448" y="704" width="32" height="32">
   <properties>
    <property name="toMap" value="stonevilleWestCellar"/>
    <property name="toPortal" value="portal1"/>
   </properties>
  </object>
  <object id="7" name="stair2" gid="2147483677" x="608" y="1088" width="32" height="32">
   <properties>
    <property name="toMap" value="stonevilleSouthWest"/>
    <property name="toPortal" value="mysteriousStair"/>
   </properties>
  </object>
 </objectgroup>
 <objectgroup id="2" name="navmesh" locked="1">
  <object id="8" x="0" y="0" width="96" height="96"/>
  <object id="9" x="96" y="32" width="32" height="32"/>
  <object id="10" x="128" y="0" width="32" height="128"/>
  <object id="11" x="192" y="0" width="32" height="160"/>
  <object id="12" x="224" y="0" width="64" height="32"/>
  <object id="13" x="256" y="32" width="96" height="32"/>
  <object id="14" x="256" y="64" width="32" height="96"/>
  <object id="15" x="288" y="128" width="32" height="32"/>
  <object id="16" x="320" y="64" width="32" height="96"/>
  <object id="17" x="352" y="64" width="32" height="32"/>
  <object id="18" x="384" y="0" width="96" height="32"/>
  <object id="19" x="448" y="32" width="32" height="64"/>
  <object id="20" x="512" y="0" width="64" height="96"/>
  <object id="21" x="576" y="0" width="64" height="32"/>
  <object id="22" x="608" y="32" width="32" height="32"/>
  <object id="23" x="576" y="64" width="64" height="32"/>
  <object id="24" x="480" y="64" width="32" height="32"/>
  <object id="25" x="384" y="32" width="32" height="160"/>
  <object id="26" x="416" y="128" width="224" height="32"/>
  <object id="27" x="608" y="160" width="32" height="192"/>
  <object id="28" x="96" y="192" width="480" height="32"/>
  <object id="29" x="544" y="224" width="32" height="128"/>
  <object id="30" x="576" y="320" width="32" height="32"/>
  <object id="31" x="416" y="256" width="128" height="32"/>
  <object id="32" x="416" y="288" width="32" height="128"/>
  <object id="33" x="448" y="320" width="96" height="32"/>
  <object id="34" x="448" y="384" width="96" height="32"/>
  <object id="35" x="512" y="416" width="32" height="320"/>
  <object id="36" x="480" y="736" width="160" height="32"/>
  <object id="37" x="576" y="672" width="32" height="64"/>
  <object id="38" x="608" y="608" width="32" height="96"/>
  <object id="39" x="576" y="512" width="32" height="128"/>
  <object id="40" x="608" y="384" width="32" height="160"/>
  <object id="41" x="576" y="384" width="32" height="64"/>
  <object id="42" x="96" y="224" width="32" height="32"/>
  <object id="43" x="96" y="256" width="288" height="32"/>
  <object id="44" x="352" y="288" width="32" height="32"/>
  <object id="45" x="288" y="288" width="32" height="32"/>
  <object id="46" x="160" y="320" width="224" height="32"/>
  <object id="47" x="160" y="352" width="32" height="64"/>
  <object id="48" x="192" y="384" width="192" height="32"/>
  <object id="49" x="352" y="416" width="32" height="32"/>
  <object id="50" x="256" y="416" width="32" height="32"/>
  <object id="51" x="160" y="448" width="128" height="32"/>
  <object id="52" x="256" y="480" width="32" height="32"/>
  <object id="53" x="320" y="448" width="160" height="32"/>
  <object id="55" x="448" y="480" width="32" height="160"/>
  <object id="56" x="320" y="512" width="96" height="32"/>
  <object id="57" x="384" y="544" width="32" height="96"/>
  <object id="58" x="416" y="608" width="32" height="32"/>
  <object id="59" x="320" y="480" width="32" height="32"/>
  <object id="60" x="320" y="544" width="32" height="96"/>
  <object id="61" x="192" y="512" width="96" height="32"/>
  <object id="62" x="256" y="544" width="32" height="96"/>
  <object id="63" x="288" y="608" width="32" height="32"/>
  <object id="64" x="192" y="544" width="32" height="160"/>
  <object id="65" x="160" y="672" width="32" height="32"/>
  <object id="66" x="128" y="512" width="32" height="192"/>
  <object id="67" x="96" y="512" width="32" height="32"/>
  <object id="68" x="64" y="512" width="32" height="288"/>
  <object id="69" x="32" y="768" width="32" height="32"/>
  <object id="70" x="0" y="576" width="32" height="224"/>
  <object id="71" x="0" y="320" width="32" height="224"/>
  <object id="72" x="32" y="448" width="96" height="32"/>
  <object id="73" x="32" y="384" width="96" height="32"/>
  <object id="74" x="96" y="352" width="32" height="32"/>
  <object id="75" x="32" y="320" width="96" height="32"/>
  <object id="76" x="32" y="224" width="32" height="96"/>
  <object id="77" x="0" y="128" width="32" height="128"/>
  <object id="78" x="32" y="128" width="160" height="32"/>
  <object id="79" x="256" y="672" width="224" height="32"/>
  <object id="80" x="352" y="704" width="32" height="64"/>
  <object id="81" x="384" y="736" width="32" height="64"/>
  <object id="82" x="416" y="768" width="32" height="64"/>
  <object id="83" x="448" y="800" width="192" height="32"/>
  <object id="84" x="608" y="832" width="32" height="32"/>
  <object id="85" x="384" y="832" width="32" height="32"/>
  <object id="86" x="384" y="864" width="256" height="32"/>
  <object id="87" x="384" y="896" width="32" height="32"/>
  <object id="88" x="384" y="928" width="256" height="32"/>
  <object id="89" x="608" y="960" width="32" height="32"/>
  <object id="90" x="352" y="992" width="288" height="32"/>
  <object id="91" x="256" y="992" width="64" height="32"/>
  <object id="92" x="320" y="768" width="32" height="256"/>
  <object id="93" x="288" y="736" width="32" height="64"/>
  <object id="94" x="128" y="736" width="160" height="32"/>
  <object id="95" x="256" y="768" width="32" height="192"/>
  <object id="96" x="192" y="768" width="32" height="288"/>
  <object id="97" x="96" y="832" width="96" height="32"/>
  <object id="99" x="64" y="928" width="96" height="32"/>
  <object id="100" x="0" y="864" width="128" height="32"/>
  <object id="101" x="0" y="896" width="32" height="224"/>
  <object id="102" x="32" y="1088" width="160" height="32"/>
  <object id="103" x="64" y="960" width="32" height="96"/>
  <object id="104" x="128" y="960" width="32" height="64"/>
  <object id="105" x="96" y="992" width="32" height="96"/>
  <object id="106" x="160" y="1056" width="128" height="32"/>
  <object id="107" x="256" y="1088" width="96" height="32"/>
  <object id="108" x="320" y="1056" width="96" height="32"/>
  <object id="109" x="384" y="1088" width="96" height="32"/>
  <object id="110" x="448" y="1056" width="96" height="32"/>
  <object id="111" x="512" y="1088" width="96" height="32"/>
  <object id="112" x="576" y="1056" width="64" height="32"/>
 </objectgroup>
</map>
