<?xml version="1.0" encoding="UTF-8"?>
<map version="1.10" tiledversion="1.11.2" orientation="orthogonal" renderorder="right-down" width="30" height="20" tilewidth="32" tileheight="32" infinite="1" nextlayerid="9" nextobjectid="15">
 <editorsettings>
  <export target="originCave.tmj" format="json"/>
 </editorsettings>
 <properties>
  <property name="lore" value="A dark, damp cave."/>
 </properties>
 <tileset firstgid="1" name="tiles4" tilewidth="32" tileheight="32" tilecount="96" columns="8">
  <image source="tiles4.png" width="256" height="384"/>
 </tileset>
 <layer id="1" name="ground" width="30" height="20" opacity="0.72">
  <data encoding="csv">
   <chunk x="-16" y="-16" width="16" height="16">
0,0,0,0,0,0,0,0,0,0,0,0,0,0,0,0,
0,0,0,0,0,0,0,0,0,0,0,0,0,0,0,0,
0,0,0,0,0,0,0,0,0,0,0,0,0,0,0,0,
0,0,0,0,0,0,0,0,0,0,0,0,0,0,0,0,
0,0,0,0,0,0,0,0,0,0,0,0,0,0,0,0,
0,0,0,0,0,0,0,0,14,14,14,14,14,0,14,14,
0,0,0,0,0,0,14,14,17,17,17,17,17,14,14,14,
0,0,0,0,0,14,17,17,17,17,17,17,17,17,17,17,
0,0,0,0,0,14,17,17,17,17,17,17,17,17,17,17,
0,0,0,0,14,17,17,17,17,17,17,17,17,17,17,17,
0,0,0,14,17,17,17,17,17,17,17,17,17,17,17,17,
0,0,0,14,17,17,17,17,17,17,17,17,17,17,17,17,
0,0,0,14,17,17,17,17,17,17,17,17,17,17,17,16,
0,0,14,17,17,17,17,17,17,17,17,17,17,17,17,16,
0,0,14,17,17,17,17,17,17,17,17,17,17,17,16,16,
0,0,14,17,17,17,17,17,17,17,17,17,17,17,16,16
</chunk>
   <chunk x="0" y="-16" width="16" height="16">
0,0,0,0,0,0,0,0,0,0,0,0,0,0,0,0,
0,0,0,0,0,0,0,0,0,0,0,0,0,0,0,0,
0,0,0,0,0,0,0,0,0,0,0,0,0,0,0,0,
0,0,0,0,0,0,0,0,0,0,0,0,0,0,0,0,
0,0,0,0,0,0,0,0,0,0,0,0,0,0,0,0,
0,0,0,0,0,0,0,0,0,0,0,0,0,0,0,0,
0,0,0,0,0,0,0,0,0,0,0,0,0,0,0,0,
14,0,0,0,0,0,0,0,0,0,0,0,0,0,0,0,
14,14,0,0,0,0,0,0,0,0,0,0,0,0,0,0,
17,14,0,0,0,0,0,0,0,0,0,0,0,0,0,0,
17,14,17,17,17,17,17,17,0,0,0,0,0,0,15,15,
17,14,17,17,17,17,17,17,17,17,17,0,15,15,16,16,
17,14,17,17,17,17,17,17,17,17,17,15,17,16,16,16,
16,16,14,17,17,17,17,17,17,17,15,15,17,17,16,16,
16,16,14,17,17,17,17,17,17,15,15,17,17,17,16,16,
16,16,14,17,17,17,17,17,15,15,16,16,17,17,16,16
</chunk>
   <chunk x="16" y="-16" width="16" height="16">
0,0,0,0,0,0,0,0,0,0,0,0,0,0,0,0,
0,0,0,0,0,0,0,0,0,0,0,0,0,0,0,0,
0,0,0,0,0,0,0,0,0,0,0,0,0,0,0,0,
0,0,0,0,0,0,0,0,0,0,0,0,0,0,0,0,
0,0,0,0,0,0,0,0,0,0,0,0,0,0,0,0,
0,0,0,0,0,0,0,0,0,0,0,0,0,0,0,0,
0,0,0,0,0,0,0,0,0,0,0,0,0,0,0,0,
0,0,0,0,0,0,0,0,0,0,0,0,0,0,0,0,
0,0,0,0,0,0,0,0,0,0,0,0,0,0,0,0,
0,0,0,0,0,0,0,0,0,0,0,0,0,0,0,0,
15,15,15,15,15,15,0,0,0,0,0,0,0,0,0,0,
16,16,16,16,16,16,15,0,0,0,0,0,0,0,0,0,
16,16,16,16,16,16,16,15,15,0,0,0,0,0,0,0,
16,16,16,16,16,16,16,16,16,15,0,0,0,0,0,0,
16,16,16,16,16,16,16,16,16,15,0,0,0,0,0,0,
16,16,16,16,16,16,16,16,16,16,15,0,0,0,0,0
</chunk>
   <chunk x="-16" y="0" width="16" height="16">
0,0,14,17,17,17,17,17,17,17,17,17,17,17,17,16,
0,0,14,14,17,17,17,17,17,17,17,17,17,17,17,16,
0,0,0,14,17,17,17,17,17,17,17,17,17,17,17,17,
0,0,0,14,14,17,17,17,17,17,17,17,17,17,17,17,
0,0,0,0,14,14,17,17,17,17,17,17,17,17,17,17,
0,0,0,0,0,14,17,17,17,17,17,17,17,17,17,17,
0,0,0,0,0,0,14,17,17,17,17,17,17,17,17,17,
0,0,0,0,0,0,0,14,14,17,17,17,17,17,17,17,
0,0,0,0,0,0,0,0,14,17,17,17,17,17,17,17,
0,0,0,0,0,0,0,0,0,17,14,17,17,15,17,17,
0,0,0,0,0,0,0,0,0,17,14,14,14,14,14,14,
0,0,0,0,0,0,0,0,0,17,14,14,14,14,14,14,
0,0,0,0,0,0,0,0,0,17,17,14,14,14,14,14,
0,0,0,0,0,0,0,0,0,0,17,14,14,14,14,14,
0,0,0,0,0,0,0,0,0,0,0,15,15,14,14,14,
0,0,0,0,0,0,0,0,0,0,0,0,0,15,15,14
</chunk>
   <chunk x="0" y="0" width="16" height="16">
16,16,14,17,17,15,15,15,15,16,16,16,16,17,17,17,
16,16,14,17,15,17,17,15,16,16,16,16,16,17,17,17,
16,16,14,15,17,17,17,15,16,16,16,16,16,17,16,17,
16,14,15,17,17,17,15,16,16,16,16,16,17,17,16,16,
17,14,17,17,17,15,16,16,16,16,16,16,17,16,16,16,
17,14,17,15,15,16,16,16,16,16,16,16,17,16,16,16,
17,14,15,17,16,16,16,16,16,16,16,16,16,16,16,17,
17,17,17,17,17,17,17,17,17,17,17,17,17,17,17,17,
17,17,17,17,17,17,17,17,17,17,17,17,17,17,17,16,
14,14,17,15,15,15,16,16,16,16,16,16,16,16,16,16,
14,15,17,17,15,15,15,16,16,16,16,16,16,16,16,16,
14,15,15,17,17,17,15,15,16,16,16,16,16,16,16,16,
14,14,15,17,17,17,17,15,16,16,16,16,16,15,15,15,
14,14,14,15,17,17,17,15,16,15,15,15,15,0,0,0,
14,14,14,14,15,15,15,15,15,0,0,0,0,0,0,0,
14,14,14,14,14,14,15,15,0,0,0,0,0,0,0,0
</chunk>
   <chunk x="16" y="0" width="16" height="16">
16,16,16,16,16,16,16,16,16,16,16,15,0,0,0,0,
17,16,16,16,16,16,16,16,16,16,16,15,0,0,0,0,
17,17,16,16,16,16,16,16,16,16,16,16,15,0,0,0,
17,17,16,16,16,16,16,16,16,16,16,16,16,15,0,0,
16,17,16,16,16,16,16,16,16,16,16,16,16,15,0,0,
16,17,16,16,16,16,16,16,16,16,16,16,16,15,0,0,
17,17,16,16,16,16,16,16,16,16,16,16,16,15,0,0,
17,16,16,16,16,16,16,16,16,16,16,16,15,15,0,0,
16,16,16,16,16,16,16,16,16,16,16,15,0,0,0,0,
16,16,16,16,16,16,16,16,16,15,15,0,0,0,0,0,
16,16,16,16,16,15,15,15,15,0,0,0,0,0,0,0,
16,16,16,15,15,0,0,0,0,0,0,0,0,0,0,0,
15,15,15,0,0,0,0,0,0,0,0,0,0,0,0,0,
0,0,0,0,0,0,0,0,0,0,0,0,0,0,0,0,
0,0,0,0,0,0,0,0,0,0,0,0,0,0,0,0,
0,0,0,0,0,0,0,0,0,0,0,0,0,0,0,0
</chunk>
   <chunk x="-16" y="16" width="16" height="16">
0,0,0,0,0,0,0,0,0,0,0,0,0,0,0,15,
0,0,0,0,0,0,0,0,0,0,0,0,0,0,0,0,
0,0,0,0,0,0,0,0,0,0,0,0,0,0,0,0,
0,0,0,0,0,0,0,0,0,0,0,0,0,0,0,0,
0,0,0,0,0,0,0,0,0,0,0,0,0,0,0,0,
0,0,0,0,0,0,0,0,0,0,0,0,0,0,0,0,
0,0,0,0,0,0,0,0,0,0,0,0,0,0,0,0,
0,0,0,0,0,0,0,0,0,0,0,0,0,0,0,0,
0,0,0,0,0,0,0,0,0,0,0,0,0,0,0,0,
0,0,0,0,0,0,0,0,0,0,0,0,0,0,0,0,
0,0,0,0,0,0,0,0,0,0,0,0,0,0,0,0,
0,0,0,0,0,0,0,0,0,0,0,0,0,0,0,0,
0,0,0,0,0,0,0,0,0,0,0,0,0,0,0,0,
0,0,0,0,0,0,0,0,0,0,0,0,0,0,0,0,
0,0,0,0,0,0,0,0,0,0,0,0,0,0,0,0,
0,0,0,0,0,0,0,0,0,0,0,0,0,0,0,0
</chunk>
   <chunk x="0" y="16" width="16" height="16">
15,15,15,15,15,15,15,0,0,0,0,0,0,0,0,0,
0,0,0,0,0,0,0,0,0,0,0,0,0,0,0,0,
0,0,0,0,0,0,0,0,0,0,0,0,0,0,0,0,
0,0,0,0,0,0,0,0,0,0,0,0,0,0,0,0,
0,0,0,0,0,0,0,0,0,0,0,0,0,0,0,0,
0,0,0,0,0,0,0,0,0,0,0,0,0,0,0,0,
0,0,0,0,0,0,0,0,0,0,0,0,0,0,0,0,
0,0,0,0,0,0,0,0,0,0,0,0,0,0,0,0,
0,0,0,0,0,0,0,0,0,0,0,0,0,0,0,0,
0,0,0,0,0,0,0,0,0,0,0,0,0,0,0,0,
0,0,0,0,0,0,0,0,0,0,0,0,0,0,0,0,
0,0,0,0,0,0,0,0,0,0,0,0,0,0,0,0,
0,0,0,0,0,0,0,0,0,0,0,0,0,0,0,0,
0,0,0,0,0,0,0,0,0,0,0,0,0,0,0,0,
0,0,0,0,0,0,0,0,0,0,0,0,0,0,0,0,
0,0,0,0,0,0,0,0,0,0,0,0,0,0,0,0
</chunk>
  </data>
 </layer>
 <layer id="4" name="poi" width="30" height="20" locked="1">
  <data encoding="csv"/>
 </layer>
 <objectgroup id="7" name="items">
  <object id="13" name="gol" gid="66" x="96" y="160" width="32" height="32">
   <properties>
    <property name="count" type="int" value="1"/>
   </properties>
  </object>
 </objectgroup>
 <objectgroup id="8" name="portals">
  <object id="12" name="stair1" gid="2147483677" x="224" y="0" width="32" height="32">
   <properties>
    <property name="toMap" value="sharstoneville"/>
    <property name="toPortal" value="stair1"/>
   </properties>
  </object>
  <object id="14" name="stair2" gid="2147483677" x="-224" y="-256" width="32" height="32">
   <properties>
    <property name="toMap" value="sharstoneville"/>
    <property name="toPortal" value="stair1"/>
   </properties>
  </object>
 </objectgroup>
</map>
