<?xml version="1.0" encoding="UTF-8"?>
<map version="1.10" tiledversion="1.11.2" orientation="orthogonal" renderorder="right-down" width="30" height="20" tilewidth="32" tileheight="32" infinite="1" nextlayerid="8" nextobjectid="12">
 <editorsettings>
  <export format="json"/>
 </editorsettings>
 <properties>
  <property name="lore">Named after an ancient sword embedded in stone in the town square. Nobody has ever been able to pull it from it's clutches.

The legend says that a mighty Gryffin crafted the sword from a shard of it's claw.</property>
 </properties>
 <tileset firstgid="1" name="tiles4" tilewidth="32" tileheight="32" tilecount="96" columns="8">
  <image source="tiles4.png" width="256" height="384"/>
 </tileset>
 <layer id="1" name="ground" width="16" height="16">
  <data encoding="csv">
   <chunk x="0" y="0" width="16" height="16">
19,19,19,19,19,19,19,19,19,19,19,19,19,19,19,19,
20,20,9,9,8,19,19,19,20,20,19,19,19,19,20,19,
20,9,8,8,8,8,8,8,8,8,20,19,19,19,20,19,
20,8,8,8,8,8,8,8,8,8,8,8,8,20,20,19,
20,8,8,8,8,8,8,8,8,8,8,8,8,20,20,19,
20,8,8,8,8,8,8,8,8,8,8,8,8,20,20,19,
20,8,8,8,8,8,8,8,8,8,8,8,8,20,20,19,
20,19,8,8,8,8,8,8,8,8,8,8,8,22,20,19,
20,20,8,8,8,8,8,8,8,8,8,8,8,18,18,19,
20,20,8,8,8,8,8,8,8,8,8,8,8,8,8,8,
20,19,8,8,19,19,19,19,19,19,20,20,20,18,18,19,
20,19,11,12,21,19,19,19,19,19,20,20,20,20,20,19,
20,15,15,15,21,19,19,19,19,19,20,20,20,20,20,19,
20,15,15,15,21,19,19,19,19,19,19,20,20,20,20,19,
19,15,15,15,21,19,19,19,19,19,19,19,19,20,20,19,
19,19,19,19,19,19,19,19,19,19,20,19,19,19,19,19
</chunk>
  </data>
 </layer>
 <layer id="3" name="poi" width="16" height="16">
  <data encoding="csv">
   <chunk x="0" y="0" width="16" height="16">
0,0,0,0,0,0,0,0,0,0,0,0,0,0,0,0,
0,0,0,0,0,0,0,0,0,0,0,0,0,0,0,0,
0,0,0,0,0,0,0,0,0,0,0,0,0,0,0,0,
0,0,0,0,0,0,24,0,0,0,0,0,0,0,0,0,
0,0,0,0,0,0,0,0,0,0,0,0,0,0,0,0,
0,0,0,0,0,0,0,0,0,0,0,0,0,0,0,0,
0,0,0,0,0,0,0,0,0,0,0,0,0,0,0,0,
0,0,0,0,0,0,0,0,0,0,0,0,0,0,0,0,
0,0,0,0,0,0,0,0,0,0,0,0,0,0,0,0,
0,0,0,0,0,0,0,0,0,0,0,0,0,0,0,0,
0,0,0,0,0,0,0,0,0,0,0,0,0,0,0,0,
0,0,0,0,0,0,0,0,0,0,0,0,0,0,0,0,
0,0,0,0,0,0,0,0,0,0,0,0,0,0,0,0,
0,0,0,0,0,0,0,0,0,0,0,0,0,0,0,0,
0,0,0,0,0,0,0,0,0,0,0,0,0,0,0,0,
0,0,0,0,0,0,0,0,0,0,0,0,0,0,0,0
</chunk>
  </data>
 </layer>
 <objectgroup id="6" name="items">
  <object id="2" name="mystery" gid="54" x="96" y="128" width="32" height="32"/>
  <object id="4" name="map" gid="41" x="128" y="64" width="32" height="32"/>
  <object id="5" gid="93" x="32" y="96" width="32" height="32"/>
  <object id="7" name="gol" type="money" gid="67" x="96" y="64" width="32" height="32">
   <properties>
    <property name="count" type="int" value="2"/>
   </properties>
  </object>
 </objectgroup>
 <objectgroup id="7" name="portals">
  <properties>
   <property name="destination" value="shop"/>
  </properties>
  <object id="8" name="originCave" gid="1" x="64" y="96" width="32" height="32">
   <properties>
    <property name="toMap" value="originCave"/>
    <property name="toPortal" value="stair1"/>
   </properties>
  </object>
  <object id="9" name="stair1" gid="2147483679" x="64" y="448" width="32" height="32">
   <properties>
    <property name="toMap" value="originCave"/>
    <property name="toPortal" value="stair1"/>
   </properties>
  </object>
  <object id="10" name="eastGate" gid="28" x="480" y="320" width="32" height="32">
   <properties>
    <property name="toMap" value="sharstonevilleEast"/>
   </properties>
  </object>
  <object id="11" name="shop" gid="4" x="352" y="160" width="32" height="32">
   <properties>
    <property name="toMap" value="sharstonevilleShop"/>
    <property name="toPortal" value="door"/>
   </properties>
  </object>
 </objectgroup>
 <layer id="5" name="foliage" width="0" height="0">
  <data encoding="csv"/>
 </layer>
</map>
