<?xml version="1.0" encoding="UTF-8"?>
<map version="1.10" tiledversion="1.11.2" orientation="orthogonal" renderorder="right-down" width="15" height="12" tilewidth="32" tileheight="32" infinite="0" nextlayerid="5" nextobjectid="6">
 <tileset firstgid="1" name="tiles4" tilewidth="32" tileheight="32" tilecount="136" columns="8">
  <image source="tiles4.png" width="256" height="544"/>
 </tileset>
 <layer id="1" name="ground" width="15" height="12">
  <data encoding="csv">
15,15,15,15,15,15,17,17,15,15,14,14,14,14,14,
15,15,15,15,15,15,15,15,17,15,14,14,14,14,14,
15,15,16,16,17,16,15,15,15,17,17,17,17,14,14,
15,17,17,17,17,17,17,17,17,17,14,14,17,14,14,
15,15,15,15,15,17,17,17,17,15,14,14,14,14,14,
14,14,14,14,14,14,14,17,17,15,15,14,14,14,14,
14,14,17,17,17,17,17,17,17,15,14,14,14,14,14,
14,17,17,17,17,17,17,17,17,17,17,14,14,14,14,
14,17,17,17,17,17,17,17,17,17,17,17,14,14,14,
14,17,17,17,17,17,17,17,17,17,17,17,17,14,14,
14,17,17,17,17,17,17,17,17,17,17,17,17,17,14,
14,14,14,14,14,14,14,14,14,14,14,14,14,14,14
</data>
 </layer>
 <objectgroup id="3" name="portals">
  <object id="1" name="entrance" gid="82" x="416" y="352" width="32" height="32">
   <properties>
    <property name="toMap" value="stonevilleEast"/>
    <property name="toPortal" value="hole"/>
   </properties>
  </object>
  <object id="4" name="stairDown" gid="2147483678" x="32" y="128" width="32" height="32">
   <properties>
    <property name="toMap" value="stonevilleShopCellar"/>
    <property name="toPortal" value="stairUpEast"/>
   </properties>
  </object>
 </objectgroup>
 <objectgroup id="4" name="items">
  <object id="3" gid="71" x="384" y="128" width="32" height="32">
   <properties>
    <property name="count" type="int" value="12"/>
   </properties>
  </object>
 </objectgroup>
</map>
