<?xml version="1.0" encoding="UTF-8"?>
<map version="1.10" tiledversion="1.11.2" orientation="orthogonal" renderorder="right-down" width="5" height="5" tilewidth="32" tileheight="32" infinite="0" nextlayerid="5" nextobjectid="7">
 <editorsettings>
  <export target="stonevilleShopCellar.tmj" format="json"/>
 </editorsettings>
 <tileset firstgid="1" name="tiles4" tilewidth="32" tileheight="32" tilecount="136" columns="8">
  <image source="tiles4.png" width="256" height="544"/>
 </tileset>
 <layer id="2" name="ground" width="5" height="5">
  <data encoding="csv">
17,17,17,17,17,
14,17,17,16,14,
16,16,14,17,17,
16,121,121,121,17,
16,16,16,16,14
</data>
 </layer>
 <objectgroup id="3" name="portals">
  <object id="2" name="stairUpWest" gid="29" x="0" y="32" width="32" height="32">
   <properties>
    <property name="toMap" value="stonevilleShop"/>
    <property name="toPortal" value="stairDown"/>
   </properties>
  </object>
  <object id="3" name="stairUpEast" gid="1073741853" x="128" y="32" width="32" height="32">
   <properties>
    <property name="toMap" value="stonevilleEastTunnel"/>
    <property name="toPortal" value="stairDown"/>
   </properties>
  </object>
 </objectgroup>
 <objectgroup id="4" name="items">
  <object id="4" name="gol" type="money" gid="76" x="64" y="128" width="32" height="32">
   <properties>
    <property name="count" type="int" value="100"/>
   </properties>
  </object>
  <object id="5" name="gol" type="money" gid="75" x="96" y="128" width="32" height="32">
   <properties>
    <property name="count" type="int" value="50"/>
   </properties>
  </object>
  <object id="6" name="orange" type="food" gid="93" x="32" y="128" width="32" height="32"/>
 </objectgroup>
</map>
