{ "compressionlevel":-1,
 "height":14,
 "infinite":false,
 "layers":[
        {
         "data":[128, 129, 129, 129, 128, 128, 128, 128, 128, 128, 128, 128, 128, 128, 128, 128, 128,
            128, 15, 15, 15, 15, 15, 15, 17, 17, 15, 15, 14, 14, 14, 14, 14, 128,
            128, 15, 15, 15, 15, 15, 15, 15, 15, 17, 15, 14, 14, 14, 14, 14, 128,
            128, 15, 15, 16, 16, 17, 16, 15, 15, 15, 17, 17, 17, 17, 14, 14, 128,
            128, 15, 17, 17, 17, 17, 17, 17, 17, 17, 17, 14, 14, 17, 14, 14, 128,
            128, 15, 15, 15, 15, 15, 17, 17, 17, 17, 15, 14, 14, 14, 14, 14, 128,
            128, 14, 14, 14, 14, 14, 14, 14, 17, 17, 15, 15, 14, 14, 14, 14, 128,
            128, 14, 14, 17, 17, 17, 17, 17, 17, 17, 15, 14, 14, 14, 14, 14, 128,
            128, 14, 17, 17, 17, 17, 17, 17, 17, 17, 17, 17, 14, 14, 14, 14, 128,
            128, 14, 17, 17, 17, 17, 17, 17, 17, 17, 17, 17, 17, 14, 14, 14, 128,
            128, 14, 17, 17, 17, 17, 17, 17, 17, 17, 17, 17, 17, 17, 14, 14, 128,
            128, 14, 17, 17, 17, 17, 17, 17, 17, 17, 17, 17, 17, 17, 17, 14, 128,
            128, 14, 14, 14, 14, 14, 14, 14, 14, 14, 14, 14, 14, 14, 14, 14, 129,
            128, 128, 128, 128, 128, 128, 128, 128, 128, 128, 128, 128, 129, 129, 129, 129, 129],
         "height":14,
         "id":1,
         "name":"ground",
         "opacity":1,
         "type":"tilelayer",
         "visible":true,
         "width":17,
         "x":0,
         "y":0
        }, 
        {
         "draworder":"topdown",
         "id":3,
         "name":"portals",
         "objects":[
                {
                 "gid":82,
                 "height":32,
                 "id":1,
                 "name":"entrance",
                 "properties":[
                        {
                         "name":"toMap",
                         "type":"string",
                         "value":"stonevilleEast"
                        }, 
                        {
                         "name":"toPortal",
                         "type":"string",
                         "value":"hole"
                        }],
                 "rotation":0,
                 "type":"",
                 "visible":true,
                 "width":32,
                 "x":448,
                 "y":384
                }, 
                {
                 "gid":2147483678,
                 "height":32,
                 "id":4,
                 "name":"stairDown",
                 "properties":[
                        {
                         "name":"toMap",
                         "type":"string",
                         "value":"stonevilleShopCellar"
                        }, 
                        {
                         "name":"toPortal",
                         "type":"string",
                         "value":"stairUpEast"
                        }],
                 "rotation":0,
                 "type":"",
                 "visible":true,
                 "width":32,
                 "x":64,
                 "y":160
                }],
         "opacity":1,
         "type":"objectgroup",
         "visible":true,
         "x":0,
         "y":0
        }, 
        {
         "draworder":"topdown",
         "id":5,
         "name":"navmesh",
         "objects":[
                {
                 "height":384,
                 "id":6,
                 "name":"",
                 "rotation":0,
                 "type":"",
                 "visible":true,
                 "width":480,
                 "x":32,
                 "y":32
                }],
         "opacity":1,
         "type":"objectgroup",
         "visible":true,
         "x":0,
         "y":0
        }, 
        {
         "draworder":"topdown",
         "id":4,
         "name":"items",
         "objects":[
                {
                 "gid":71,
                 "height":32,
                 "id":3,
                 "name":"",
                 "properties":[
                        {
                         "name":"count",
                         "type":"int",
                         "value":12
                        }],
                 "rotation":0,
                 "type":"",
                 "visible":true,
                 "width":32,
                 "x":416,
                 "y":160
                }],
         "opacity":1,
         "type":"objectgroup",
         "visible":true,
         "x":0,
         "y":0
        }],
 "nextlayerid":6,
 "nextobjectid":7,
 "orientation":"orthogonal",
 "renderorder":"right-down",
 "tiledversion":"1.11.2",
 "tileheight":32,
 "tilesets":[
        {
         "columns":8,
         "firstgid":1,
         "image":"tiles4.png",
         "imageheight":544,
         "imagewidth":256,
         "margin":0,
         "name":"tiles4",
         "spacing":0,
         "tilecount":136,
         "tileheight":32,
         "tilewidth":32
        }],
 "tilewidth":32,
 "type":"map",
 "version":"1.10",
 "width":17
}